public/logos/6H.svg

<?xml version="1.0" encoding="UTF-8"?>
<svg xmlns="http://www.w3.org/2000/svg" xmlns:xlink="http://www.w3.org/1999/xlink" width="176pt" height="55.11pt" viewBox="0 0 176 55.11" version="1.1">
<defs>
<clipPath id="clip1">
  <path d="M 141 6 L 176 6 L 176 55.109375 L 141 55.109375 Z M 141 6 "/>
</clipPath>
</defs>
<g id="surface1">
<path style=" stroke:none;fill-rule:evenodd;fill:rgb(95.9198%,61.03363%,22.569275%);fill-opacity:1;" d="M 128.40625 14.046875 L 151.855469 14.046875 L 151.855469 0 C 151.855469 0 159.054688 12.003906 159.375 13.882812 C 160.101562 17.941406 156.769531 22.558594 149.546875 28.925781 C 143.367188 34.375 127.683594 42.246094 127.683594 42.246094 C 127.683594 42.246094 138.828125 23.285156 139.257812 21.699219 C 139.6875 20.117188 128.40625 14.046875 128.40625 14.046875 "/>
<g clip-path="url(#clip1)" clip-rule="nonzero">
<path style=" stroke:none;fill-rule:evenodd;fill:rgb(95.9198%,61.03363%,22.569275%);fill-opacity:1;" d="M 141.003906 37.894531 L 151.558594 55.109375 L 151.558594 41.816406 L 175.867188 41.816406 L 163.992188 34.296875 L 176 14.179688 L 164.289062 20.410156 C 164.289062 20.410156 163.429688 20.972656 163.269531 19.953125 C 163.136719 18.960938 165.3125 12.730469 162.839844 8.96875 C 161.148438 6.363281 156.472656 6.660156 155.75 7.222656 C 155.023438 7.816406 154.59375 10.421875 154.59375 10.421875 C 154.59375 10.421875 156.636719 8.671875 158.785156 8.96875 C 160.960938 9.265625 161.496094 11.816406 161.683594 14.179688 C 161.980469 17.644531 158.785156 22.425781 157.066406 24.734375 C 155.320312 27.042969 148.523438 34.566406 141.003906 37.894531 "/>
</g>
<path style=" stroke:none;fill-rule:evenodd;fill:rgb(15.789795%,20.149231%,46.444702%);fill-opacity:1;" d="M 9.75 37.410156 L 3.4375 37.410156 L 6.3125 22.480469 C 6.554688 21.324219 6.527344 20.570312 6.257812 20.167969 C 5.988281 19.765625 5.34375 19.578125 4.269531 19.578125 L 0 19.550781 L 0.886719 15.039062 L 7.414062 15.066406 C 9.804688 15.066406 11.414062 15.574219 12.246094 16.597656 C 13.078125 17.589844 13.242188 19.445312 12.730469 22.101562 L 9.75 37.410156 "/>
<path style=" stroke:none;fill-rule:evenodd;fill:rgb(15.789795%,20.149231%,46.444702%);fill-opacity:1;" d="M 25.085938 15.121094 L 22.613281 27.851562 L 16.035156 29.113281 L 18.746094 15.09375 L 25.085938 15.121094 "/>
<path style=" stroke:none;fill-rule:evenodd;fill:rgb(15.789795%,20.149231%,46.444702%);fill-opacity:1;" d="M 36.070312 15.148438 L 33.597656 27.875 L 27.019531 29.140625 L 29.730469 15.121094 L 36.070312 15.148438 "/>
<path style=" stroke:none;fill-rule:evenodd;fill:rgb(15.789795%,20.149231%,46.444702%);fill-opacity:1;" d="M 55.382812 37.546875 L 48.453125 37.546875 L 45.09375 26.398438 C 44.878906 26.480469 44.71875 26.535156 44.609375 26.617188 C 44.398438 26.855469 44.261719 27.125 44.207031 27.472656 L 42.246094 37.519531 L 35.960938 37.492188 L 37.144531 31.449219 C 37.65625 28.816406 38.515625 26.855469 39.75 25.59375 C 40.421875 24.894531 41.683594 24.117188 43.566406 23.203125 L 39.402344 15.148438 L 46.972656 15.171875 L 50.410156 24.894531 C 50.464844 24.894531 50.492188 24.894531 50.519531 24.894531 C 50.761719 24.816406 50.949219 24.464844 51.085938 23.824219 L 52.75 15.199219 L 59.035156 15.226562 L 57.824219 21.433594 C 57.449219 23.363281 56.644531 24.894531 55.382812 26.050781 C 54.414062 26.910156 53.179688 27.582031 51.648438 28.09375 C 52.183594 29.246094 52.964844 31.207031 54.011719 33.921875 C 54.359375 34.808594 54.816406 36.015625 55.382812 37.546875 "/>
<path style=" stroke:none;fill-rule:evenodd;fill:rgb(15.789795%,20.149231%,46.444702%);fill-opacity:1;" d="M 70.960938 37.601562 L 64.648438 37.574219 L 67.519531 22.640625 C 67.734375 21.511719 67.734375 20.761719 67.46875 20.355469 C 67.199219 19.953125 66.554688 19.742188 65.480469 19.742188 L 61.207031 19.742188 L 62.070312 15.226562 L 68.621094 15.253906 C 71.011719 15.253906 72.625 15.765625 73.457031 16.757812 C 74.289062 17.777344 74.449219 19.605469 73.941406 22.289062 L 70.960938 37.601562 "/>
<path style=" stroke:none;fill-rule:evenodd;fill:rgb(15.789795%,20.149231%,46.444702%);fill-opacity:1;" d="M 102.648438 25.273438 C 101.84375 29.382812 100.207031 32.550781 97.679688 34.78125 C 94.996094 37.195312 91.503906 38.378906 87.179688 38.378906 C 83.367188 38.351562 80.628906 37.167969 78.964844 34.808594 C 77.539062 32.765625 77.109375 30.242188 77.699219 27.234375 L 80.011719 15.28125 L 85.648438 15.28125 L 83.449219 26.695312 C 84.765625 26.695312 85.757812 26.425781 86.402344 25.863281 C 87.207031 25.136719 87.796875 23.847656 88.175781 21.941406 L 89.464844 15.308594 L 95.101562 15.335938 L 93.625 22.988281 C 93.0625 25.917969 91.53125 27.933594 89.03125 29.003906 C 87.53125 29.648438 85.515625 29.972656 82.992188 29.972656 C 82.828125 30.75 83.097656 31.503906 83.769531 32.28125 C 84.683594 33.355469 86.132812 33.894531 88.09375 33.894531 C 90.347656 33.921875 92.175781 33.300781 93.574219 32.039062 C 95.265625 30.507812 96.472656 27.957031 97.144531 24.386719 L 98.917969 15.335938 L 104.558594 15.363281 L 102.648438 25.273438 "/>
<path style=" stroke:none;fill-rule:evenodd;fill:rgb(15.789795%,20.149231%,46.444702%);fill-opacity:1;" d="M 115.597656 15.386719 L 113.152344 28.121094 L 106.570312 29.382812 L 109.285156 15.363281 L 115.597656 15.386719 "/>
</g>
</svg>

<svg xmlns="http://www.w3.org/2000/svg" width="176pt" height="73.48" viewBox="0 0 176 55.11"><defs><clipPath id="a"><path d="M141 6h35v49.11h-35Zm0 0"/></clipPath></defs><path d="M128.406 14.047h23.45V0s7.199 12.004 7.519 13.883c.727 4.058-2.605 8.676-9.828 15.043-6.18 5.449-21.863 13.32-21.863 13.32s11.144-18.96 11.574-20.547c.43-1.582-10.852-7.652-10.852-7.652" style="stroke:none;fill-rule:evenodd;fill:#f59c3a;fill-opacity:1"/><g clip-path="url(#a)"><path d="m141.004 37.895 10.555 17.214V41.816h24.308l-11.875-7.52L176 14.18l-11.71 6.23s-.86.563-1.02-.457c-.133-.992 2.042-7.223-.43-10.984-1.692-2.606-6.367-2.309-7.09-1.746-.727.593-1.156 3.199-1.156 3.199s2.043-1.75 4.191-1.453c2.176.297 2.711 2.847 2.899 5.21.296 3.466-2.899 8.247-4.618 10.555-1.746 2.309-8.543 9.832-16.062 13.16" style="stroke:none;fill-rule:evenodd;fill:#f59c3a;fill-opacity:1"/></g><path d="M9.75 37.41H3.438l2.875-14.93c.242-1.156.214-1.91-.055-2.312-.27-.402-.914-.59-1.988-.59L0 19.551l.887-4.512 6.527.027q3.584-.002 4.832 1.532c.832.992.996 2.847.484 5.504zM25.086 15.121l-2.473 12.73-6.578 1.262 2.711-14.02zM36.07 15.148l-2.472 12.727-6.578 1.266 2.71-14.02zM55.383 37.547h-6.93l-3.36-11.149c-.214.082-.374.137-.484.22a1.6 1.6 0 0 0-.402.855l-1.96 10.047-6.286-.028 1.184-6.043c.511-2.633 1.37-4.594 2.605-5.855.672-.7 1.934-1.477 3.816-2.39l-4.164-8.056 7.57.024 3.438 9.723h.11c.242-.079.43-.43.566-1.07l1.664-8.626 6.285.028-1.21 6.207c-.376 1.93-1.18 3.46-2.442 4.617-.969.86-2.203 1.531-3.735 2.043.536 1.152 1.317 3.113 2.364 5.828q.52 1.33 1.37 3.625M70.96 37.602l-6.312-.028 2.872-14.933c.214-1.13.214-1.88-.051-2.286-.27-.402-.914-.613-1.989-.613h-4.273l.863-4.515 6.551.027c2.39 0 4.004.512 4.836 1.504.832 1.02.992 2.847.484 5.531zM102.648 25.273c-.804 4.11-2.441 7.278-4.968 9.508-2.684 2.414-6.176 3.598-10.5 3.598-3.813-.027-6.551-1.211-8.215-3.57-1.426-2.043-1.856-4.567-1.266-7.575l2.313-11.953h5.636L83.45 26.695c1.317 0 2.309-.27 2.953-.832.805-.726 1.395-2.015 1.774-3.922l1.289-6.632 5.637.027-1.477 7.652c-.562 2.93-2.094 4.946-4.594 6.016q-2.252.968-6.039.969c-.164.777.106 1.53.778 2.308.914 1.074 2.363 1.614 4.324 1.614q3.382.039 5.48-1.856c1.692-1.531 2.899-4.082 3.57-7.652l1.774-9.051 5.64.027zM115.598 15.387l-2.446 12.734-6.582 1.262 2.715-14.02z" style="stroke:none;fill-rule:evenodd;fill:#283376;fill-opacity:1"/></svg>
